src/static/logos/rubocop.svg

<?xml version="1.0" encoding="UTF-8" standalone="no"?>
<svg width="256px" height="302px" viewBox="0 0 256 302" version="1.1" xmlns="http://www.w3.org/2000/svg" xmlns:xlink="http://www.w3.org/1999/xlink" preserveAspectRatio="xMidYMid">
	<g>
		<path d="M248.495374,128.680652 L248.495374,118.996942 C248.495374,108.400709 239.826409,99.7292507 229.227683,99.7292507 L26.7723173,99.7292507 C16.1760845,99.7292507 7.50462611,108.400709 7.50462611,118.996942 L7.50462611,128.680652 C3.01930306,131.433179 0,136.367284 0,141.987027 L0,167.8917 C0,173.511444 3.01930306,178.448041 7.50462611,181.200569 L7.50462611,191.250784 C7.50462611,201.847017 16.1760845,210.518475 26.7723173,210.518475 L229.227683,210.518475 C239.826409,210.518475 248.495374,201.847017 248.495374,191.250784 L248.495374,181.200569 C252.98319,178.448041 256,173.511444 256,167.8917 L256,141.987027 C256,136.367284 252.98319,131.430686 248.495374,128.680652 Z M128.757942,0 C74.193576,0 29.1807787,40.7693177 22.4390814,93.501159 L235.076803,93.501159 C228.335106,40.7693177 183.322309,0 128.757942,0 Z M95.9694579,237.235941 L159.26512,237.235941 L165.727576,244.718129 L175.448684,236.323419 L165.144159,224.390814 L90.0879254,224.390814 L79.7834005,236.323419 L89.5045092,244.718129 L95.9694579,237.235941 Z M205.569411,214.417889 L205.569411,255.401624 C205.569411,266.666043 196.351935,275.883519 185.087516,275.883519 L173.940279,275.883519 L173.940279,275.843628 C171.499406,275.843628 169.345254,274.701728 167.909153,272.948986 L167.881727,272.948986 L154.552913,255.92271 L154.537954,255.935176 C153.114319,254.090185 150.910302,252.878474 148.404605,252.861022 C148.387152,252.861022 148.372193,252.856035 148.35474,252.856035 C148.339781,252.856035 148.324821,252.861022 148.307369,252.861022 L109.717135,252.861022 C109.699683,252.861022 109.684723,252.856035 109.669764,252.856035 C109.652311,252.856035 109.637352,252.861022 109.619899,252.861022 C107.298701,252.875981 105.241785,253.920645 103.815657,255.536259 L103.788231,255.523793 L90.1477629,272.948986 L90.1278171,272.948986 C88.6917158,274.701728 86.537564,275.843628 84.0966906,275.843628 L84.0966906,275.883519 L72.9394807,275.883519 C61.6750618,275.883519 52.4575859,266.666043 52.4575859,255.401624 L52.4575859,214.417889 L27.4255439,214.417889 L27.4255439,255.518806 C27.4255439,280.550848 47.9074388,301.032743 72.9394807,301.032743 L185.094996,301.032743 C210.129531,301.032743 230.608933,280.550848 230.608933,255.518806 L230.608933,214.417889 L205.569411,214.417889 Z" fill="#0A0B09"></path>
		<path d="M210.785129,167.619206 L45.21737,167.619206 C37.3976916,167.619206 31,161.221515 31,153.401836 C31,145.582158 37.3976916,139.184466 45.21737,139.184466 L210.785129,139.184466 C218.602308,139.184466 225,145.582158 225,153.401836 C225,161.221515 218.602308,167.619206 210.785129,167.619206" fill="#D7252C"></path>
	</g>
</svg>

<svg width="256" height="302" xmlns="http://www.w3.org/2000/svg" preserveAspectRatio="xMidYMid"><path d="M248.495 128.68v-9.683c0-10.596-8.669-19.268-19.267-19.268H26.772c-10.596 0-19.267 8.672-19.267 19.268v9.684C3.019 131.433 0 136.367 0 141.987v25.905c0 5.62 3.02 10.556 7.505 13.309v10.05c0 10.596 8.671 19.267 19.267 19.267h202.456c10.598 0 19.267-8.671 19.267-19.267V181.2c4.488-2.753 7.505-7.69 7.505-13.31v-25.904c0-5.62-3.017-10.556-7.505-13.306zM128.758 0C74.194 0 29.18 40.77 22.439 93.501h212.638C228.335 40.77 183.322 0 128.757 0zM95.969 237.236h63.296l6.463 7.482 9.72-8.395-10.304-11.932H90.088l-10.305 11.932 9.722 8.395 6.464-7.482zm109.6-22.818v40.984c0 11.264-9.217 20.482-20.481 20.482H173.94v-.04c-2.44 0-4.595-1.142-6.03-2.895h-.028l-13.33-17.026-.014.012c-1.424-1.845-3.628-3.057-6.133-3.074-.018 0-.033-.005-.05-.005-.015 0-.03.005-.048.005h-38.59c-.017 0-.032-.005-.047-.005-.018 0-.033.005-.05.005-2.321.015-4.378 1.06-5.804 2.675l-.028-.012-13.64 17.425h-.02c-1.436 1.753-3.59 2.895-6.031 2.895v.04H72.939c-11.264 0-20.481-9.218-20.481-20.482v-40.984H27.426v41.1c0 25.033 20.481 45.515 45.513 45.515h112.156c25.035 0 45.514-20.482 45.514-45.514v-41.101h-25.04z" fill="#0A0B09"/><path d="M210.785 167.62H45.217c-7.82 0-14.217-6.398-14.217-14.218s6.398-14.218 14.217-14.218h165.568c7.817 0 14.215 6.398 14.215 14.218s-6.398 14.217-14.215 14.217" fill="#D7252C"/></svg>
